assets/images/while.svg

<svg width="100" height="100" viewBox="0 0 100 100" fill="none" xmlns="http://www.w3.org/2000/svg">
<g clip-path="url(#clip0_168_438)">
<path d="M11.3354 82.1112C14.9944 86.5117 19.4156 90.2373 24.3936 93.115L26.3712 89.4856C21.4001 86.5811 16.9925 82.8275 13.3545 78.4001L11.3354 82.1112Z" fill="#121212" stroke="white" stroke-linecap="round" stroke-linejoin="round"/>
<path d="M24.3936 93.1151C28.0068 95.2088 31.8826 96.8266 35.922 97.9271L37.8652 94.3453C33.8349 93.2282 29.9705 91.5944 26.3712 89.4856L24.3936 93.1151Z" fill="#121212" stroke="white" stroke-linecap="round" stroke-linejoin="round"/>
<path d="M35.9219 97.927C40.1515 99.0874 44.5209 99.6773 48.9111 99.6805H49.1454L51.0542 96.1735C46.5947 96.175 42.1564 95.5689 37.8651 94.3723L35.9219 97.927Z" fill="#121212" stroke="white" stroke-linecap="round" stroke-linejoin="round"/>
<path d="M49.1455 99.6806C52.4051 99.6701 55.6554 99.3377 58.8478 98.6883L60.729 95.2288C57.5529 95.8579 54.3213 96.1744 51.0818 96.1735L49.1455 99.6806Z" fill="#121212" stroke="white" stroke-linecap="round" stroke-linejoin="round"/>
<path d="M58.8477 98.661C61.6746 98.0772 64.4422 97.2423 67.1167 96.1667L68.9497 92.7683C66.2708 93.8096 63.5036 94.6147 60.6806 95.1743L58.8477 98.661Z" fill="#121212" stroke="white" stroke-linecap="round" stroke-linejoin="round"/>
<path d="M67.1377 96.1667C69.9129 95.0578 72.5754 93.6924 75.0897 92.0887L76.8607 88.833C74.359 90.3851 71.7178 91.707 68.9706 92.7819L67.1377 96.1667Z" fill="#121212" stroke="white" stroke-linecap="round" stroke-linejoin="round"/>
<path d="M75.0894 92.1022C81.8639 87.8139 87.4577 81.9392 91.3724 75.0017C87.5672 80.5646 82.6239 85.2807 76.8603 88.8466L75.0894 92.1022Z" fill="#121212" stroke="white" stroke-linecap="round" stroke-linejoin="round"/>
<path d="M4.31348 70.7469C6.10555 74.8393 8.46903 78.6644 11.3353 82.111L13.3543 78.4C10.4966 74.9253 8.14691 71.0726 6.37383 66.9543L4.31348 70.7469Z" fill="#121212" stroke="white" stroke-linecap="round" stroke-linejoin="round"/>
<path d="M1.46094 61.9928C2.11632 64.9966 3.07194 67.929 4.31376 70.7469L6.38101 66.9544C5.14856 64.1086 4.20674 61.1487 3.56954 58.1187L1.46094 61.9928Z" fill="#121212" stroke="white" stroke-linecap="round" stroke-linejoin="round"/>
<path d="M0.344434 51.7569C0.34267 55.1985 0.716934 58.6303 1.46075 61.9928L3.528 58.1323C2.83401 54.8781 2.48529 51.5616 2.48748 48.2362C2.48748 47.8624 2.48748 47.4954 2.48748 47.1284C2.66148 39.3735 4.75002 31.7774 8.57211 24.9983C3.18255 32.9076 0.316975 42.2272 0.344434 51.7569Z" fill="#121212" stroke="white" stroke-linecap="round" stroke-linejoin="round"/>
<path d="M75.0825 92.1171L75.0899 92.1023" stroke="white" stroke-linecap="round" stroke-linejoin="round"/>
<path d="M2.53564 47.1227V47.1147" stroke="white" stroke-linecap="round" stroke-linejoin="round"/>
<path d="M0.358398 51.1249L2.53591 47.1284" stroke="white" stroke-linecap="round" stroke-linejoin="round"/>
<path d="M85.4318 82.12C104.398 63.4126 104.398 33.082 85.4318 14.3746C66.4653 -4.33275 35.7146 -4.33276 16.7481 14.3746C-2.21836 33.082 -2.21838 63.4126 16.7481 82.12C35.7146 100.827 66.4653 100.827 85.4318 82.12Z" fill="#121212" stroke="white" stroke-linecap="round" stroke-linejoin="round"/>
<path d="M85.4318 82.12C104.398 63.4126 104.398 33.082 85.4318 14.3746C66.4653 -4.33275 35.7146 -4.33276 16.7481 14.3746C-2.21836 33.082 -2.21838 63.4126 16.7481 82.12C35.7146 100.827 66.4653 100.827 85.4318 82.12Z" stroke="white" stroke-linecap="round" stroke-linejoin="round"/>
<path d="M50.9101 89.6752C74.0565 89.6752 92.8203 71.1677 92.8203 48.3376C92.8203 25.5075 74.0565 7 50.9101 7C27.7638 7 9 25.5075 9 48.3376C9 71.1677 27.7638 89.6752 50.9101 89.6752Z" fill="#121212" stroke="white" stroke-linecap="round" stroke-linejoin="round"/>
<path d="M91.6067 49.9966C91.6055 41.484 88.9398 33.1793 83.9739 26.217C79.0079 19.2547 71.9838 13.9744 63.8611 11.0974C55.7384 8.22033 46.9133 7.88688 38.5913 10.1425C30.2693 12.3982 22.8562 17.133 17.3647 23.7001C20.6803 19.2357 24.8709 15.4734 29.6882 12.6363C34.5054 9.79914 39.8512 7.94493 45.4086 7.18359C50.9659 6.42225 56.6217 6.76928 62.0405 8.20411C67.4593 9.63894 72.5309 12.1323 76.9545 15.5365C81.3781 18.9407 85.0637 23.1862 87.7928 28.0215C90.5218 32.8568 92.2387 38.1834 92.8417 43.6853C93.4447 49.1873 92.9216 54.7527 91.3032 60.0516C89.6849 65.3504 87.0043 70.2748 83.4204 74.5327C88.7499 67.4334 91.6203 58.8302 91.6067 49.9966Z" fill="white" stroke="white" stroke-linecap="round" stroke-linejoin="round"/>
</g>
<defs>
<clipPath id="clip0_168_438">
<rect width="100" height="100" fill="white"/>
</clipPath>
</defs>
</svg>

<svg width="100" height="100" fill="none" xmlns="http://www.w3.org/2000/svg"><g clip-path="url(#a)" stroke="#fff" stroke-linecap="round" stroke-linejoin="round"><path d="M11.335 82.111a48.63 48.63 0 0 0 13.059 11.004l1.977-3.63A48.528 48.528 0 0 1 13.355 78.4l-2.02 3.711Z" fill="#121212"/><path d="M24.394 93.115a48.337 48.337 0 0 0 11.528 4.812l1.943-3.582a48.211 48.211 0 0 1-11.494-4.86l-1.977 3.63ZM35.922 97.927a49.235 49.235 0 0 0 12.99 1.753h.233l1.91-3.507a49.048 49.048 0 0 1-13.19-1.8l-1.943 3.554ZM49.145 99.68c3.26-.01 6.51-.342 9.703-.992l1.881-3.46c-3.176.63-6.408.946-9.647.946l-1.937 3.507Z" fill="#121212"/><path d="M58.848 98.661a48.393 48.393 0 0 0 8.269-2.494l1.833-3.399a49.266 49.266 0 0 1-8.27 2.406l-1.832 3.487ZM67.138 96.167a47.7 47.7 0 0 0 7.952-4.078l1.77-3.256a48.458 48.458 0 0 1-7.89 3.949l-1.832 3.385ZM75.09 92.102a48.411 48.411 0 0 0 16.282-17.1A48.47 48.47 0 0 1 76.86 88.847l-1.77 3.255ZM4.313 70.747a47.696 47.696 0 0 0 7.022 11.364l2.02-3.711a47.743 47.743 0 0 1-6.981-11.446l-2.06 3.793Z" fill="#121212"/><path d="M1.46 61.993a46.05 46.05 0 0 0 2.854 8.754l2.067-3.793A46.111 46.111 0 0 1 3.57 58.12l-2.11 3.874Z" fill="#121212"/><path d="M.344 51.757a47.276 47.276 0 0 0 1.117 10.236l2.067-3.86a47.294 47.294 0 0 1-1.04-9.897v-1.108a47.206 47.206 0 0 1 6.084-22.13A47.264 47.264 0 0 0 .344 51.757Z" fill="#121212"/><path d="m75.082 92.117.008-.015M2.536 47.123v-.008M.358 51.125l2.178-3.997"/><path d="M85.432 82.12a47.442 47.442 0 0 0 0-67.745c-18.967-18.708-49.717-18.708-68.684 0a47.442 47.442 0 0 0 0 67.745c18.967 18.707 49.717 18.707 68.684 0Z" fill="#121212"/><path d="M85.432 82.12a47.442 47.442 0 0 0 0-67.745c-18.967-18.708-49.717-18.708-68.684 0a47.442 47.442 0 0 0 0 67.745c18.967 18.707 49.717 18.707 68.684 0Z"/><path d="M50.91 89.675c23.147 0 41.91-18.507 41.91-41.337C92.82 25.508 74.057 7 50.91 7 27.764 7 9 25.508 9 48.338c0 22.83 18.764 41.337 41.91 41.337Z" fill="#121212"/><path d="M91.607 49.997a40.95 40.95 0 0 0-7.633-23.78c-4.966-6.962-11.99-12.243-20.113-15.12a42.461 42.461 0 0 0-25.27-.954c-8.322 2.255-15.735 6.99-21.226 13.557a41.707 41.707 0 0 1 12.323-11.064 42.29 42.29 0 0 1 15.72-5.452 42.472 42.472 0 0 1 16.633 1.02 42.14 42.14 0 0 1 14.913 7.332 41.5 41.5 0 0 1 10.839 12.486 40.94 40.94 0 0 1 5.049 15.663 40.798 40.798 0 0 1-1.539 16.367 41.16 41.16 0 0 1-7.883 14.48c5.33-7.099 8.2-15.702 8.187-24.535Z" fill="#fff"/></g><defs><clipPath id="a"><path fill="#fff" d="M0 0h100v100H0z"/></clipPath></defs></svg>
